build/images/clients/fujifilm.svg

<?xml version="1.0" encoding="UTF-8"?>
<svg width="582px" height="98px" viewBox="0 0 582 98" version="1.1" xmlns="http://www.w3.org/2000/svg" xmlns:xlink="http://www.w3.org/1999/xlink">
    <title>fujifilm</title>
    <g id="Page-1" stroke="none" stroke-width="1" fill="none" fill-rule="evenodd">
        <g id="fujifilm" fill-rule="nonzero">
            <path d="M425.082759,1 C425.565517,1 438.696552,1 442.848276,1 L442.848276,76.3948187 L442.848276,76.2 L442.848276,77.0766839 C442.848276,82.0445596 445.262069,84.5772021 450.186207,84.7720207 L475,84.7720207 L475,93.3440415 C475,94.3181347 474.517241,95 473.455172,95 L433.289655,95 C420.834483,95 419,88.0839378 419,81.8497409 L419,6.26010363 C419,2.65595855 420.351724,1 424.503448,1.09740933 L425.082759,1.09740933" id="Path" fill="#000000"></path>
            <path d="M377.82996,1 L396,1 L396,89.4476684 C396,89.4476684 396,90.0321244 396,90.0321244 C396,94.0259067 394.348178,95 390.947368,95 L372,95 L372,5.96787565 C372.097166,2.94818653 373.165992,1 377.34413,1.09740933 L377.052632,1.09740933 L377.82996,1" id="Path" fill="#000000"></path>
            <path d="M0.00400625978,14.6366463 L0.00400625978,14.1496232 C0.00400625978,10.3508432 -0.192300469,6.25984928 2.16338028,3.72732926 C4.3227543,1.48702308 7.85627543,1 12.2731768,1 L64,1 L64,10.0586293 C64,10.643057 63.7055399,11.3248893 62.8221596,11.3248893 C62.8221596,11.3248893 31.5112363,11.3248893 31.5112363,11.3248893 C26.9961815,11.5196986 25.4257277,13.0781724 25.229421,17.5587848 L25.229421,41.4229158 L62.0369327,41.4229158 L62.0369327,50.6763543 C62.0369327,50.6763543 62.0369327,50.9685682 62.0369327,50.9685682 C62.0369327,51.7478051 61.4480125,52.1374236 60.6627856,52.1374236 C60.6627856,52.1374236 25.229421,52.1374236 25.229421,52.1374236 L25.229421,88.8589639 L25.229421,88.6641547 L25.229421,89.2485824 L25.229421,89.9304147 C25.1312676,93.6317901 23.364507,95.0928594 19.2420657,94.9954548 L0.00400625978,94.9954548 L0.00400625978,14.6366463" id="Path" fill="#000000"></path>
            <path d="M81.5339806,1.09706053 C81.9223301,1.09706053 95.5145631,1.09706053 99.592233,1.09706053 L99.592233,72.4365508 C99.592233,78.5513642 100.466019,82.8220276 104.737864,85.3456014 C110.466019,88.6456594 121.145631,88.74272 126.970874,85.4426619 C130.951456,83.2102697 132.504854,79.8131511 132.504854,72.9218534 L132.504854,5.75596602 C132.601942,2.65002903 133.669903,1 137.84466,1.09706053 C137.84466,1.09706053 151.92233,1.09706053 156,1.09706053 L156,64.4775872 C156,68.7482506 156,78.6484248 152.699029,84.0838145 C149.300971,89.7133253 144.15534,93.498686 136.970874,95.5369571 C125.029126,98.8370152 106.970874,98.8370152 95.7087379,95.4398966 C82.2135922,91.3633543 76,83.4043908 76,70.3982796 L76,7.21187398 L76,7.50305557 L76,6.3383292 L76,6.04714761 C76,4.30005805 76.4854369,2.65002903 77.0679612,2.06766584 C77.7475728,1.38824212 79.0097087,1 81.0485437,1 L81.5339806,1" id="Path" fill="#000000"></path>
            <path d="M554.093142,1.09730849 C549.328557,1.09730849 546.800409,3.23809524 545.536336,7.51966874 L530.270215,72.2298137 L529.881269,72.2298137 C529.881269,72.2298137 515.879222,8.88198758 514.03173,1 C509.850563,1 492.445241,1 492.445241,1 C488.264074,1 487,3.14078675 487,6.44927536 L487,6.83850932 L487,94.9026915 L496.140225,94.9026915 C497.598772,94.9026915 498.18219,94.1242236 498.18219,92.6645963 L498.18219,18.515528 L499.640737,18.515528 L500.613101,22.0186335 C500.807574,22.699793 517.143296,86.826087 519.185261,94.9026915 L532.020471,94.9026915 C536.882293,94.9026915 538.632549,92.9565217 539.799386,88.1884058 L557.301945,18.6128364 L558.760491,18.6128364 C558.760491,34.0848861 558.760491,93.0538302 558.760491,95 C562.844422,95 575.874104,95 575.874104,95 C580.055271,95 582,93.3457557 582,89.2587992 L582,1.09730849 C576.457523,1.09730849 554.093142,1.09730849 554.093142,1.09730849" id="Path" fill="#000000"></path>
            <path d="M308.020556,1.09740462 C303.667473,1.09740462 300.185006,1.5844277 298.056832,3.82473387 C295.735187,6.3572539 295.831923,10.4482478 295.831923,14.2470278 L295.831923,14.7340509 L295.831923,38.3059681 C295.831923,38.6955865 295.638452,38.9878004 295.348247,39.1826096 L279,52.1374236 L295.831923,52.1374236 L295.831923,94.9954548 L314.792019,94.9954548 C318.758162,95.0928594 320.596131,93.6317901 320.692866,89.9304147 L320.692866,89.2485824 L320.692866,88.6641547 L320.692866,88.8589639 L320.692866,52.1374236 L326.980653,52.1374236 C326.980653,52.1374236 326.980653,52.1374236 327.077388,52.1374236 L355.614268,52.1374236 C356.38815,52.1374236 356.968561,51.7478051 356.968561,50.9685682 L356.968561,50.6763543 L356.968561,41.4229158 L320.789601,41.4229158 L320.789601,17.5587848 C320.983071,13.175577 322.530834,11.6171032 326.980653,11.3248893 C326.980653,11.3248893 357.839178,11.3248893 357.839178,11.3248893 C358.709794,11.3248893 359,10.7404616 359,10.0586293 L359,1 L308.020556,1" id="Path" fill="#000000"></path>
            <path d="M271,52 L247,52 L247,95 L265.947368,95 C269.348178,95 271,94.0249433 271,90.0272109 C271,90.0272109 271,89.4421769 271,89.4421769 L271,52" id="Path" fill="#000000"></path>
            <path d="M269.639676,33.4336482 C270.51417,32.7580193 271,32.2754272 271,30.8276509 L271,1.00346023 L252.82996,1.00346023 L252.052632,1.00346023 L252.34413,1.00346023 C248.165992,0.906941809 247.097166,2.83731014 247,5.82938105 L247,51 L269.639676,33.4336482" id="Path" fill="#000000"></path>
            <path d="M187.425249,87.3091849 C197.734219,85.8513465 201.202658,79.6312359 201.202658,70.4954485 L201.202658,6.05899026 C201.202658,2.17142113 203.418605,0.907961168 205.923588,1.0051504 C205.923588,1.0051504 222.976744,1.0051504 225,1.0051504 L225,61.9427964 C225,76.9099375 221.916944,84.4906973 213.053156,90.9051864 C208.428571,94.2096201 200.431894,98 183.089701,98 C173.166113,98 168.734219,97.4168646 168.156146,97.3196754 C167.289037,97.1252969 167,96.6393508 167,95.9590262 L167,87.9895095 C171.142857,88.0866987 180.488372,88.3782664 187.425249,87.3091849" id="Path" fill="#000000"></path>
            <path d="M425.27883,0.00405858666 C425.769363,0.00405858666 439.111876,0.00405858666 443.330465,0.00405858666 L443.330465,75.473829 L443.330465,75.2788166 L443.330465,76.058866 C443.330465,81.0316803 445.783133,83.5668405 450.786575,83.7618529 C450.884682,83.7618529 470.996558,83.7618529 476,83.7618529 L476,92.3423952 C476,93.3174569 475.509466,94 474.430293,94 L433.519793,94 C420.864028,94 419,87.0770624 419,80.836668 L419,5.17188524 C419,1.5641572 420.373494,-0.0934475766 424.592083,0.00405858666 L425.27883,0.00405858666" id="Path" fill="#FFFFFF"></path>
            <path d="M378.82996,0 C378.82996,0 394.959514,0 397,0 L397,88.4476684 C397,88.4476684 397,89.0321244 397,89.0321244 C397,93.0259067 395.348178,94 391.947368,94 L373,94 L373,4.96787565 C373.097166,1.94818653 374.165992,0 378.34413,0.0974093264 L378.052632,0.0974093264 L378.82996,0" id="Path" fill="#FFFFFF"></path>
            <path d="M1.00372903,13.6225304 L1.00372903,13.1360114 C1.00372903,9.34116367 0.807722071,5.25440457 3.25780901,2.72450607 C5.41388553,0.486518941 8.94201072,0 13.3521672,0 C13.3521672,0 62.74592,0 65,0 L65,9.04925231 C65,9.63307504 64.7059896,10.3142016 63.8239583,10.3142016 C63.8239583,10.3142016 32.5608489,10.3142016 32.5608489,10.3142016 C28.0526889,10.5088091 26.4846332,12.1629735 26.2886263,16.541644 L26.2886263,40.3810721 L63.0399304,40.3810721 L63.0399304,49.624932 C63.0399304,49.624932 63.0399304,49.9168434 63.0399304,49.9168434 C63.0399304,50.6952737 62.4519096,51.0844888 61.6678818,51.0844888 C61.6678818,51.0844888 26.2886263,51.0844888 26.2886263,51.0844888 L26.2886263,87.8653208 L26.2886263,87.6707132 L26.2886263,88.254536 L26.2886263,88.9356625 C26.1906228,92.6332064 24.4265602,94.0927632 20.3104141,93.9954595 L1.00372903,93.9954595 L1.00372903,13.6225304" id="Path" fill="#FFFFFF"></path>
            <path d="M82.5339806,0 C82.9223301,0 96.5145631,0 100.592233,0 L100.592233,71.4365508 C100.592233,77.5513642 101.466019,81.8220276 105.737864,84.3456014 C111.466019,87.6456594 122.145631,87.74272 127.970874,84.4426619 C131.951456,82.2102697 133.504854,78.8131511 133.504854,71.9218534 L133.504854,4.75596602 C133.601942,1.65002903 134.669903,0 138.84466,0.097060531 C138.84466,0.097060531 152.92233,0.097060531 157,0.097060531 L157,63.4775872 C157,67.6511901 157,77.6484248 153.699029,83.0838145 C150.300971,88.7133253 145.15534,92.498686 137.970874,94.5369571 C126.029126,97.8370152 107.970874,97.8370152 96.7087379,94.4398966 C83.2135922,90.3633543 77,82.4043908 77,69.3982796 L77,6.21187398 L77,6.50305557 L77,5.3383292 L77,5.14420814 C77,3.39711858 77.4854369,1.74708956 78.0679612,1.16472637 C78.7475728,0.485302655 80.0097087,0.097060531 82.0485437,0.097060531 L82.5339806,0.097060531" id="Path" fill="#FFFFFF"></path>
            <path d="M554.093142,0.0973084886 C549.328557,0.0973084886 546.800409,2.23809524 545.536336,6.51966874 L530.270215,71.2298137 L529.881269,71.2298137 C529.881269,71.2298137 515.879222,7.88198758 514.03173,0 C509.850563,0 492.445241,0 492.445241,0 C488.264074,0 487,2.14078675 487,5.44927536 L487,5.83850932 L487,93.9026915 L496.140225,93.9026915 C497.598772,93.9026915 498.18219,93.2215321 498.18219,91.6645963 L498.18219,17.515528 L499.640737,17.515528 L500.613101,21.0186335 C500.807574,21.699793 517.143296,85.826087 519.185261,93.9026915 L532.020471,93.9026915 C536.882293,93.9026915 538.632549,91.9565217 539.799386,87.1884058 L557.301945,17.6128364 L558.760491,17.6128364 C558.760491,33.0848861 558.760491,92.0538302 558.760491,94 C562.844422,94 575.874104,94 575.874104,94 C580.055271,94 582,92.3457557 582,88.2587992 C582,88.2587992 582,2.33540373 582,0.0973084886 C576.457523,0.0973084886 554.093142,0.0973084886 554.093142,0.0973084886" id="Path" fill="#FFFFFF"></path>
            <path d="M307.958838,0.0972031687 C303.600484,0.0972031687 300.113801,0.583219012 297.983051,2.81889189 C295.658596,5.34617428 295.755448,9.42870737 295.755448,13.2196309 L295.755448,13.7056468 C295.755448,13.7056468 295.755448,22.453932 295.755448,37.3260168 C295.755448,37.7148295 295.561743,38.006439 295.368039,38.2008453 L279,51.1288667 L295.8523,51.1288667 L295.8523,93.9954642 L314.835351,93.9954642 C318.806295,94.0926673 320.646489,92.6346198 320.743341,88.9408994 L320.743341,88.2604772 L320.743341,87.6772582 L320.743341,87.8716645 L320.743341,51.2260699 L327.038741,51.2260699 C327.038741,51.2260699 327.135593,51.2260699 327.135593,51.2260699 L355.707022,51.2260699 C356.48184,51.2260699 357.062954,50.8372572 357.062954,50.0596319 L357.062954,49.573616 L357.062954,40.339315 L320.743341,40.339315 L320.743341,16.5245387 C320.937046,12.1503961 322.486683,10.5951454 326.941889,10.3035359 C326.941889,10.3035359 357.837772,10.3035359 357.837772,10.3035359 C358.709443,10.3035359 359,9.72031687 359,9.03989469 L359,0 L307.958838,0" id="Path" fill="#FFFFFF"></path>
            <path d="M271,51 L247,51 L247,94 L265.947368,94 C269.348178,94 271,93.0249433 271,89.0272109 C271,89.0272109 271,88.4421769 271,88.4421769 L271,51" id="Path" fill="#FFFFFF"></path>
            <path d="M269.639676,32.4336482 C270.51417,31.7580193 271,31.2754272 271,29.8276509 L271,0.00346022589 L252.82996,0.00346022589 L252.052632,0.00346022589 L252.34413,0.00346022589 C248.165992,-0.0930581907 247.097166,1.83731014 247,4.82938105 L247,50 L269.639676,32.4336482" id="Path" fill="#ADADAD"></path>
            <path d="M187.425249,86.3091849 C197.734219,84.8513465 201.202658,78.6312359 201.202658,69.4954485 L201.202658,5.05899026 C201.202658,1.17142113 203.418605,-0.092038832 205.923588,0.00515039605 C205.923588,0.00515039605 222.976744,0.00515039605 225,0.00515039605 L225,60.9427964 C225,75.9099375 221.916944,83.4906973 213.053156,89.9051864 C208.428571,93.2096201 200.431894,97 183.089701,97 C173.166113,97 168.734219,96.4168646 168.156146,96.3196754 C167.289037,96.1252969 167,95.6393508 167,94.9590262 L167,86.9895095 C171.046512,86.9895095 180.392027,87.2810772 187.425249,86.3091849" id="Path" fill="#FFFFFF"></path>
        </g>
    </g>
</svg>

<svg width="582" height="98" xmlns="http://www.w3.org/2000/svg"><g fill-rule="nonzero" fill="none"><path d="M425.083 1h17.765v75.395-.195.877c0 4.968 2.414 7.5 7.338 7.695H475v8.572c0 .974-.483 1.656-1.545 1.656H433.29C420.834 95 419 88.084 419 81.85V6.26c0-3.604 1.352-5.26 5.503-5.163h.58M377.83 1H396v89.032c0 3.994-1.652 4.968-5.053 4.968H372V5.968c.097-3.02 1.166-4.968 5.344-4.87h-.291L377.83 1M.004 14.637v-.487c0-3.8-.196-7.89 2.16-10.423C4.322 1.487 7.855 1 12.273 1H64v9.059c0 .584-.294 1.266-1.178 1.266h-31.31c-4.516.195-6.086 1.753-6.283 6.234v23.864h36.808v9.546c0 .779-.589 1.168-1.374 1.168H25.229V88.86v-.195 1.266c-.098 3.702-1.864 5.163-5.987 5.065H.004V14.637M81.534 1.097h18.058v71.34c0 6.114.874 10.385 5.146 12.909 5.728 3.3 16.408 3.397 22.233.097 3.98-2.233 5.534-5.63 5.534-12.521V5.756c.097-3.106 1.165-4.756 5.34-4.659H156v63.38c0 4.271 0 14.171-3.301 19.607-3.398 5.63-8.544 9.415-15.728 11.453-11.942 3.3-30 3.3-41.262-.097C82.214 91.363 76 83.404 76 70.398V7.212v.291-1.455c0-1.748.485-3.398 1.068-3.98.68-.68 1.942-1.068 3.98-1.068h.486M554.093 1.097c-4.764 0-7.293 2.141-8.557 6.423L530.27 72.23h-.389S515.88 8.882 514.031 1h-21.586C488.265 1 487 3.14 487 6.45V94.902h9.14c1.459 0 2.042-.779 2.042-2.238v-74.15h1.459l.972 3.504c.195.68 16.53 64.807 18.572 72.884h12.835c4.862 0 6.613-1.946 7.78-6.715l17.502-69.575h1.458V95h17.114c4.181 0 6.126-1.654 6.126-5.741V1.097h-27.907M308.02 1.097c-4.353 0-7.835.487-9.963 2.728-2.322 2.532-2.225 6.623-2.225 10.422V38.306c0 .39-.194.682-.484.877L279 52.137h16.832v42.858h18.96c3.966.098 5.804-1.363 5.9-5.065v-1.266.195-36.722h34.922c.774 0 1.355-.39 1.355-1.168v-9.546h-36.18V17.559c.194-4.383 1.742-5.942 6.192-6.234h30.858c.87 0 1.161-.585 1.161-1.266V1h-50.98M271 52h-24v43h18.947c3.401 0 5.053-.975 5.053-4.973V52M269.64 33.434c.874-.676 1.36-1.159 1.36-2.606V1.003H252.053h.291C248.166.907 247.097 2.837 247 5.83V51l22.64-17.566M187.425 87.31c10.31-1.459 13.778-7.679 13.778-16.815V6.06c0-3.888 2.216-5.151 4.72-5.054H225v60.938c0 14.967-3.083 22.548-11.947 28.962C208.43 94.21 200.432 98 183.09 98c-9.924 0-14.356-.583-14.934-.68-.867-.195-1.156-.68-1.156-1.361v-7.97c4.143.098 13.488.39 20.425-.68" fill="#000"/><path d="M425.279.004h18.051v75.47-.195.78c0 4.973 2.453 7.508 7.457 7.703H476v8.58c0 .975-.49 1.658-1.57 1.658h-40.91C420.864 94 419 87.077 419 80.837V5.172c0-3.608 1.373-5.265 5.592-5.168h.687M378.83 0H397v89.032c0 3.994-1.652 4.968-5.053 4.968H373V4.968c.097-3.02 1.166-4.968 5.344-4.87h-.291L378.83 0M1.004 13.623v-.487c0-3.795-.196-7.882 2.254-10.411C5.414.487 8.942 0 13.352 0H65v9.05c0 .583-.294 1.264-1.176 1.264H32.561c-4.508.195-6.076 1.849-6.272 6.228v23.84h36.75v9.535c0 .778-.587 1.167-1.371 1.167h-35.38v36.781-.194 1.264c-.097 3.698-1.861 5.158-5.978 5.06H1.004V13.623M82.534 0h18.058v71.437c0 6.114.874 10.385 5.146 12.909 5.728 3.3 16.408 3.397 22.233.097 3.98-2.233 5.534-5.63 5.534-12.521V4.756c.097-3.106 1.165-4.756 5.34-4.659H157v63.38c0 4.174 0 14.171-3.301 19.607-3.398 5.63-8.544 9.415-15.728 11.453-11.942 3.3-30 3.3-41.262-.097C83.214 90.363 77 82.404 77 69.398V6.212v.291-1.359c0-1.747.485-3.397 1.068-3.98.68-.679 1.942-1.067 3.98-1.067h.486M554.093.097c-4.764 0-7.293 2.141-8.557 6.423L530.27 71.23h-.389S515.88 7.882 514.031 0h-21.586C488.265 0 487 2.14 487 5.45V93.902h9.14c1.459 0 2.042-.681 2.042-2.238v-74.15h1.459l.972 3.504c.195.68 16.53 64.807 18.572 72.884h12.835c4.862 0 6.613-1.946 7.78-6.715l17.502-69.575h1.458V94h17.114c4.181 0 6.126-1.654 6.126-5.741V.097h-27.907M307.959.097c-4.359 0-7.845.486-9.976 2.722-2.324 2.527-2.228 6.61-2.228 10.4v24.107c0 .389-.193.68-.387.875L279 51.129h16.852v42.866h18.983c3.971.098 5.811-1.36 5.908-5.054v-1.264.195-36.646h34.964c.775 0 1.356-.389 1.356-1.166v-9.721h-36.32V16.525c.194-4.375 1.744-5.93 6.199-6.221h30.896c.871 0 1.162-.584 1.162-1.264V0h-51.041M271 51h-24v43h18.947c3.401 0 5.053-.975 5.053-4.973V51" fill="#FFF"/><path d="M269.64 32.434c.874-.676 1.36-1.159 1.36-2.606V.003H252.053h.291c-4.178-.096-5.247 1.834-5.344 4.826V50l22.64-17.566" fill="#ADADAD"/><path d="M187.425 86.31c10.31-1.459 13.778-7.679 13.778-16.815V5.06c0-3.888 2.216-5.151 4.72-5.054H225v60.938c0 14.967-3.083 22.548-11.947 28.962C208.43 93.21 200.432 97 183.09 97c-9.924 0-14.356-.583-14.934-.68-.867-.195-1.156-.68-1.156-1.361v-7.97c4.047 0 13.392.292 20.425-.68" fill="#FFF"/></g></svg>
